X: 6
T:Brampton Reel. WI.006
M:C|
L:1/8
Q:200
S:Wm Irwin, 1838 MS, AGG's Transcription
R:Reel
O:England
A:Lake District
Z:vmp.Chris Partington.2005
K:F
c|f2(cB) ABc2|dBGF EGG2|f2(cB) ABc2|dbge f2f:|!
f|g2gf efg2|a2ag fga2|b2bg a2af|ecde f2f:|]
